!!!!SEGMENT: Ano3005-Se_ben_li_occhi--Newberry_Partbooks.krn
!!!id: Ano3005
!!!jrpid: Ano3233
!!!AGN: Madrigal
!!!voices: 4
!!!COM: Anonymous
!!!OTL: Se ben' li occhi (Newberry Partbooks)
**kern	**kern	**kern	**kern
*part4	*part3	*part2	*part1
*staff4	*staff3	*staff2	*staff1
*I"Bassus	*I"Tenor	*I"Altus	*I"Superius
*I'B	*I'T	*I'A	*I'S
*clefF4	*clefGv2	*clefGv2	*clefG2
*k[b-]	*k[b-]	*k[b-]	*k[b-]
*F:	*F:	*F:	*F:
*M2/1	*M2/1	*M2/1	*M2/1
*met(C|)	*met(C|)	*met(C|)	*met(C|)
0GG	0G	0d	0g
=1	=1	=1	=1
2G	2B-y	2d	2g
2C	2c	2c	2g
2G	2d	2B-y	2g
2G	2e	2B-y	2g
=2	=2	=2	=2
2F	1f	2c	1a
2.D	.	1d	.
.	1f	.	1a
4E	.	.	.
4F	.	4c	.
4G	.	4B-y	.
=3	=3	=3	=3
2A	2e	2c	2a
2B-y	2.d	2d	2g
1A	.	1e	1a
.	8c#iL	.	.
.	8BnXiJ	.	.
.	2c#i	.	.
=4	=4	=4	=4
1D	1d	1d	1f
2r	2r	2r	2r
2D	2f	2d	2a
=5	=5	=5	=5
2F	2f	2d	2a
2F	2f	2c	2a
4BB-y	1f	1d	1b-y
4C	.	.	.
4D	.	.	.
4E	.	.	.
=6	=6	=6	=6
1F	2.f	2c	2a
.	.	2A	2cc
.	4e	.	.
2G	2d	2B-y	2b-y
2A	2c	2c	[2a
=7	=7	=7	=7
2D	2.d	1A	4a]
.	.	.	4g
2F	.	.	4f
.	4c	.	4e
2G	4B-y	2B-y	2d
.	4A	.	.
2E	2G	2c	[2g
=8	=8	=8	=8
1D	1A	1d	2g]
.	.	.	2f#i
2r	2G	2B-y	2g
2G	2B-y	2d	2g
=9	=9	=9	=9
2F	2c	2f	2a
2D	2d	2f	2f
2E-X	2B-y	2e-X	2g
2E-i	2B-y	2e-i	2g
=10	=10	=10	=10
2BB-y	2B-y	2d	2f
2BB-y	2B-y	2d	2f
1B-y	2r	2r	2r
.	2d	2d	2b-y
=11	=11	=11	=11
2A	2f	2c	2cc
2F	2f	2A	2dd
2G	2e	2B-y	2dd
2A	2e	2c	2cc
=12	=12	=12	=12
2D	2d	2A	2dd
2D	2d	2A	2dd
2r	2r	1f	1a
2D	2d	.	.
=13	=13	=13	=13
2D	2d	2f	2a
2D	2d	2f	2a
2D	2d	2f	2a
2D	2d	2f	2a
=14	=14	=14	=14
1C	1e	1g	1cc
1D	1d	1f	2b-y
.	.	.	[2a
=15	=15	=15	=15
2E-X	2B-y	2e	4a]
.	.	.	4g
2C	2c	2e	1g
1D	1A	1d	.
.	.	.	2f#i
=16	=16	=16	=16
1G	1G	1d	1g
2r	2r	2r	2r
2C	2c	2e	2g
=17	=17	=17	=17
2F	2c	2f	2a
2G	2B-y	2d	2b-y
2G	2B-y	2e	2g
2F	2c	2f	2a
=18	=18	=18	=18
1G	4B-y	4d	1b-y
.	4A	4c	.
.	4B-y	4d	.
.	4c	4e	.
1D	1d	1f	1a
=19	=19	=19	=19
1F	2c	2r	2r
.	2c	1f	1a
1C	2c	.	.
.	2c	2e	2g
=20	=20	=20	=20
2D	2.A	2d	2f
2AA	.	2c	2.e
.	4G	.	.
1BB-y	2F	4B-y	.
.	.	2A	4d
.	2D	.	[2d
.	.	4G	.
=21	=21	=21	=21
1AA	1E	1A	2d]
.	.	.	2c#i
1D	1D	1A	1d
=22	=22	=22	=22
2r	2r	2r	2r
2D	2F	2A	2d
2C	2G	2c	2e
2BB-y	2B-y	2d	2g
=23	=23	=23	=23
2C	2A	2c	2g
2D	2A	2A	2f
2GG	2G	2B-y	2g
2GG	2G	2B-y	2g
=24	=24	=24	=24
2r	2r	2r	2r
2G	2B-y	2d	2g
2F	2c	2f	2a
2E	2e-i	2g	2cc
=25	=25	=25	=25
2F	2d	2f	2cc
2G	2d	2d	2b-y
1C	1c	1e	1cc
=26	=26	=26	=26
2F	2c	2f	2a
2F	2f	2c	2a
2F	2f	2d	2a
2F	2f	2c	2a
=27	=27	=27	=27
1G	4d	1B-y	1b-y
.	4c	.	.
.	4d	.	.
.	4e	.	.
2F	2f	2c	2a
[2BB-y	[2f	[2d	[2b-y
=28	=28	=28	=28
2BB-]	2f]	2d]	2b-]
2F	2f	2c	2a
2C	2e	2c	2g
2D	[2d	2A	2f
=29	=29	=29	=29
1AA	2d]	1A	1e
.	2c#i	.	.
1D	1d	1A	1d
=30	=30	=30	=30
1BB-y	2r	2r	2r
.	2f	2d	2d
2C	2e	2c	2e
2D	2d	2A	2f
=31	=31	=31	=31
2E-X	2d	2G	2g
2E-i	2c	2G	2g
1D	2.d	1A	2f
.	.	.	4d
.	8cL	.	4e
.	8B-yJ	.	.
=32	=32	=32	=32
1D	2A	1d	4f
.	.	.	4g
.	2A	.	4a
.	.	.	4f
2C	2c	2e	4g
.	.	.	4a
2BB-y	2d	2f	[2b-y
=33	=33	=33	=33
1E-i	1G	2B-y	4b-]
.	.	.	4a
.	.	2c	1g
1D	1A	1d	.
.	.	.	2f#i
=34	=34	=34	=34
1GG	4G	1B-y	1g
.	4A	.	.
.	4B-y	.	.
.	4c	.	.
2r	4d	2r	2r
.	4e	.	.
2BB-y	2f	2d	2d
=35	=35	=35	=35
2C	2e	2c	2e
2D	2d	2A	2f
2E-X	2d	2G	2g
2E-i	2c	2G	2g
=36	=36	=36	=36
1D	2.d	1A	2f
.	.	.	4d
.	8cL	.	4e
.	8B-yJ	.	.
1D	2A	1d	4f
.	.	.	4g
.	2A	.	4a
.	.	.	4f
=37	=37	=37	=37
2C	2c	2e	4g
.	.	.	4a
2BB-y	2d	2f	2.b-y
1E-i	1G	2B-y	.
.	.	.	4a
.	.	2c	[2g
=38	=38	=38	=38
1D	1A	1.d	2g]
.	.	.	2f#i
2GG	1G	.	[1gl
[2G	.	2c	.
=39	=39	=39	=39
2G]	1d	2B-y	0g_
2F	.	2A	.
2E	2c	1G	.
2D	2B-y	.	.
=40	=40	=40	=40
1C	1e-i	1c	0g_
[1GGl	[1dl	[1B-yl	.
=41	=41	=41	=41
00GG]	00d]	00B-]	00g]
==	==	==	==
*-	*-	*-	*-
!!!system-decoration: [*]
!!!RDF**kern: i = editorial accidental
!!!RDF**kern: l = terminal long
!!!ENC: Benjamin Ory
!!!END: 2024/5/6
!!!EED: Benjamin Ory
!!!EEV: 2024/05/06
!!!YEC: Copyright 2024 Benjamin Ory, All Rights Reserved
!!!ONB: Translated from MusicXML on 2024/05/06